X:171351109190835
T:3-10-12-11-4-2-5-2-8-8-5-8-8-12-6-3
%%setfont-1 Courier-Bold 8
T:$1K.516f::32:142:10:61:153:122:159:30:16:155:7:175:43:124:1:83::$0
T:$1Perm. No.: 171351109190835$0
M:3/8
L:1/8
Q:1/8=111
%%staves [1 2]
V:1 clef=treble
V:2 clef=bass
K:C
%1
[V:1]|: Gce |\
[V:2]|: [E,2C,2]z |\
%2
[V:1] cGe |\
[V:2] [E,2C,2]z |\
%3
[V:1] B/A/B/c/d/B/ |\
[V:2] G,2z |\
%4
[V:1] ce/c/g |\
[V:2] [G,2E,2]z |\
%5
[V:1] d/A/^f/d/a/f/ |\
[V:2] C,2z |\
%6
[V:1] g/^f/g/b/d |\
[V:2] [D,B,,][D,B,,][G,B,,] |\
%7
[V:1] e/g/d/c/B/A/ \
[V:2] C,D,D,, \
%8a
[V:1]|1 [g2d2B2G2]z :|2
[V:2]|1 G,,G,/=F,/E,/D,/ :|2
%8b
[V:1] [g2d2B2G2]z |:\
[V:2] G,,B,/G,/^F,/E,/ |:\
%9
[V:1] (a^fd) |\
[V:2] [^F,2D,2][F,C,] |\
%10
[V:1] g/b/g/d/B/G/ |\
[V:2] [D,2B,,2]z |\
%11
[V:1] e/c/e/g/c'/g/ |\
[V:2] [G,2C,2]z |\
%12
[V:1] e/c/B/d/g |\
[V:2] G,G,,z |\
%13
[V:1] gf/e/d/c/ |\
[V:2] [E,2C,2]z |\
%14
[V:1] [cE][cE][cE] |\
[V:2] C,C,C,   |\
%15
[V:1] fdg   |\
[V:2] F,D,G, |\
%16
[V:1] c2z :|]
[V:2] C,G,,C,, :|]
